imgs/whatsdifferent/github.svg

<?xml version="1.0" encoding="UTF-8"?>
<svg width="45px" height="45px" viewBox="0 0 45 45" version="1.1" xmlns="http://www.w3.org/2000/svg" xmlns:xlink="http://www.w3.org/1999/xlink">
    <!-- Generator: Sketch 48.1 (47250) - http://www.bohemiancoding.com/sketch -->
    <title>Open Source</title>
    <desc>Created with Sketch.</desc>
    <defs></defs>
    <g id="Symbols" stroke="none" stroke-width="1" fill="none" fill-rule="evenodd">
        <g id="Open-Source" fill="#2D3D4D" fill-rule="nonzero">
            <g id="001-github-logo" transform="translate(4.000000, 4.000000)">
                <path d="M34.4826515,9.235082 C32.830041,6.40352847 30.5883804,4.1617836 27.7570797,2.50934169 C24.9253576,0.85681549 21.8339613,0.0307630979 18.4806993,0.0307630979 C15.1278588,0.0307630979 12.035451,0.857068337 9.20431891,2.50934169 C6.37276538,4.16169932 4.13118907,6.40352847 2.47857859,9.235082 C0.826220957,12.0665513 0,15.1585376 0,18.5109567 C0,22.5379727 1.17489749,26.1591686 3.52528246,29.3754715 C5.87541458,32.5920273 8.91143736,34.8177585 12.6330979,36.052918 C13.0663098,36.1333235 13.3870046,36.0767699 13.5955194,35.8846902 C13.8041185,35.6923576 13.9082916,35.4514784 13.9082916,35.1630638 C13.9082916,35.1149385 13.9041617,34.6819795 13.8961549,33.8636811 C13.8878952,33.0453827 13.8840182,32.3315103 13.8840182,31.7224009 L13.3305353,31.8181458 C12.9776446,31.8827904 12.5324647,31.9101822 11.9949954,31.9024282 C11.457779,31.8949271 10.900082,31.8386264 10.3226629,31.7339476 C9.74499089,31.6301959 9.20769021,31.3895695 8.71033941,31.012574 C8.21324146,30.6355786 7.8603508,30.1421048 7.65175171,29.5329112 L7.41112528,28.9791754 C7.25073576,28.6105239 6.99822551,28.2009954 6.6532574,27.7521071 C6.30828929,27.3027973 5.95944419,26.9982005 5.60655353,26.8378109 L5.43807289,26.7172027 C5.32580866,26.6370501 5.22163554,26.5403781 5.12530068,26.4281982 C5.02905011,26.3160182 4.95698861,26.203754 4.90886333,26.0913212 C4.86065376,25.9788041 4.90060364,25.8865148 5.0291344,25.8141162 C5.15766515,25.7417175 5.38994761,25.7065718 5.72699317,25.7065718 L6.20807745,25.7784647 C6.52894077,25.8427722 6.92582688,26.0348519 7.39924146,26.3558838 C7.87240319,26.6766629 8.26136674,27.0936925 8.5662164,27.6068041 C8.93537358,28.264713 9.38013212,28.7660251 9.90175626,29.1109932 C10.422959,29.4559613 10.9484601,29.6281503 11.477754,29.6281503 C12.0070478,29.6281503 12.4641959,29.5880319 12.8493667,29.5082164 C13.2341162,29.4279795 13.5950979,29.3073713 13.9321435,29.1470661 C14.0765194,28.0717904 14.4696128,27.245738 15.1110866,26.6683189 C14.1967904,26.5722369 13.3747836,26.4275239 12.6446446,26.2351071 C11.9149271,26.0424374 11.1608519,25.7297494 10.3829248,25.2962005 C9.60457631,24.8632415 8.95888838,24.3256036 8.44569248,23.6842141 C7.9324123,23.0424875 7.51116856,22.2 7.18255125,21.1575103 C6.85376538,20.1145991 6.6893303,18.9115513 6.6893303,17.5480296 C6.6893303,15.6065831 7.3231344,13.9544784 8.59048975,12.5907882 C7.9968041,11.1311845 8.05285194,9.49492483 8.75880182,7.68217768 C9.224041,7.53763326 9.91397722,7.64610478 10.8282733,8.006918 C11.742738,8.36789977 12.4122779,8.67713212 12.8375672,8.93351936 C13.2628565,9.18982232 13.6036105,9.40701822 13.8603349,9.58316856 C15.3525558,9.16622323 16.8924806,8.95770843 18.4805308,8.95770843 C20.0685809,8.95770843 21.6088428,9.16622323 23.1011481,9.58316856 L24.0155285,9.005918 C24.64082,8.62074715 25.3792187,8.26777221 26.2289544,7.94690888 C27.0791959,7.62621412 27.7293508,7.5378861 28.1787449,7.68243052 C28.9003713,9.49526196 28.9646788,11.1314374 28.3708246,12.591041 C29.6380957,13.9547312 30.2721526,15.6072574 30.2721526,17.5482825 C30.2721526,18.9118041 30.1071276,20.1186446 29.7788474,21.1695626 C29.4501458,22.2206492 29.0252779,23.0622938 28.5040752,23.6962665 C27.9822825,24.3301549 27.3324647,24.8635786 26.5545376,25.2964533 C25.7764419,25.7296651 25.0221139,26.0423531 24.2923964,26.2350228 C23.5623417,26.4276925 22.7403349,26.5724897 21.8260387,26.6687403 C22.6599294,27.3903667 23.076959,28.5294442 23.076959,30.085467 L23.076959,35.1623895 C23.076959,35.4508041 23.1772551,35.6915991 23.3780159,35.8840159 C23.5785239,36.0760957 23.8951731,36.1326492 24.328385,36.0521595 C28.0505513,34.8171686 31.086574,32.5913531 33.4366219,29.3747973 C35.7864169,26.1584943 36.9617358,22.5372984 36.9617358,18.5102825 C36.9608929,15.1582847 36.1342506,12.0665513 34.4826515,9.235082 Z" id="Shape"></path>
            </g>
        </g>
    </g>
</svg>

<?xml version="1.0" encoding="utf-8"?>
<!-- Generator: Adobe Illustrator 16.0.0, SVG Export Plug-In . SVG Version: 6.00 Build 0)  -->
<!DOCTYPE svg PUBLIC "-//W3C//DTD SVG 1.1//EN" "http://www.w3.org/Graphics/SVG/1.1/DTD/svg11.dtd">
<svg version="1.1" id="Layer_1" xmlns="http://www.w3.org/2000/svg" xmlns:xlink="http://www.w3.org/1999/xlink" x="0px" y="0px"
	 width="45px" height="45px" viewBox="0 0 45 45" enable-background="new 0 0 45 45" xml:space="preserve">
<title>Open Source</title>
<desc>Created with Sketch.</desc>
<g id="Symbols">
	<g id="Open-Source">
		<g id="_x30_01-github-logo" transform="translate(4.000000, 4.000000)">
			<path id="Shape" fill="#2D3D4D" d="M34.482,9.235c-1.652-2.832-3.895-5.073-6.726-6.726s-5.923-2.479-9.276-2.479
				c-3.353,0-6.445,0.826-9.276,2.479S4.131,6.403,2.479,9.235C0.826,12.066,0,15.159,0,18.511c0,4.027,1.175,7.648,3.525,10.864
				c2.35,3.217,5.386,5.443,9.108,6.678c0.433,0.08,0.754,0.023,0.962-0.168c0.208-0.192,0.312-0.434,0.312-0.722
				c0-0.048-0.004-0.481-0.012-1.3s-0.012-1.531-0.012-2.141l-0.553,0.096c-0.353,0.064-0.798,0.092-1.335,0.084
				s-1.095-0.063-1.672-0.168c-0.578-0.104-1.115-0.345-1.612-0.722s-0.85-0.87-1.059-1.479l-0.241-0.555
				c-0.16-0.368-0.413-0.777-0.758-1.227c-0.345-0.449-0.694-0.754-1.047-0.914l-0.168-0.121c-0.112-0.08-0.216-0.176-0.312-0.289
				c-0.096-0.111-0.168-0.225-0.217-0.336c-0.048-0.113-0.008-0.205,0.121-0.277c0.128-0.072,0.361-0.107,0.698-0.107l0.481,0.071
				c0.321,0.064,0.718,0.257,1.191,0.577c0.473,0.321,0.862,0.738,1.167,1.252c0.369,0.657,0.814,1.158,1.335,1.504
				c0.521,0.345,1.046,0.517,1.576,0.517s0.987-0.04,1.372-0.12c0.384-0.08,0.746-0.2,1.083-0.361
				c0.145-1.074,0.538-1.9,1.179-2.479c-0.915-0.096-1.736-0.24-2.467-0.433c-0.729-0.192-1.484-0.506-2.262-0.938
				c-0.778-0.434-1.424-0.971-1.937-1.613c-0.513-0.641-0.935-1.483-1.263-2.525c-0.329-1.043-0.493-2.247-0.493-3.61
				c0-1.941,0.634-3.593,1.901-4.957c-0.594-1.459-0.538-3.096,0.168-4.909c0.465-0.145,1.155-0.036,2.069,0.325
				c0.915,0.361,1.584,0.67,2.009,0.927s0.766,0.474,1.023,0.649c1.492-0.417,3.032-0.625,4.62-0.625s3.129,0.208,4.621,0.625
				l0.914-0.577c0.625-0.385,1.363-0.738,2.213-1.059c0.851-0.321,1.501-0.409,1.95-0.264c0.722,1.812,0.786,3.449,0.192,4.908
				c1.268,1.364,1.9,3.017,1.9,4.958c0,1.363-0.164,2.571-0.492,3.622c-0.329,1.051-0.754,1.893-1.275,2.526
				s-1.172,1.167-1.949,1.601c-0.778,0.433-1.533,0.746-2.262,0.938c-0.73,0.193-1.553,0.338-2.467,0.435
				c0.834,0.722,1.251,1.86,1.251,3.417v5.076c0,0.289,0.101,0.529,0.301,0.722s0.517,0.249,0.95,0.169
				c3.723-1.235,6.758-3.461,9.108-6.678s3.525-6.838,3.525-10.865C36.961,15.158,36.135,12.066,34.482,9.235z"/>
		</g>
	</g>
</g>
</svg>
